X:317
T:Flowers of Spring, The
T:Tom Billy's
R:jig
Z:id:hn-jig-317
Z:Also played in Edor, see #35
M:6/8
K:Ador
~A3 ABd|edB G2B|dBA GAG|GBd edg|~A3 ABd|edB G2B|dBB gBB|1 ABA AEG:|2 ABA A3||
|:eaa aga|bab age|e/2f/2ge GBd|~e3 ged|eaa aga|bab age|e/2f/2ge dBG|1 ABA A3:|2 ABA A2G||
